X:1
T:Clinging to the Cross
T:Clinging to the Cross
T:Brantly G. Holley
T:Pauline Ernest, 1913
T:Public Domain Courtesy of the Cyber Hymnal™
T:Public Domain Courtesy of the Cyber Hymnal™
C:Brantly G. Holley
Z:Public Domain
Z:Courtesy of the Cyber Hymnal™
%%score ( 1 2 ) ( 3 4 )
L:1/8
Q:1/4=90
M:4/4
K:Db
V:1 treble 
V:2 treble 
V:3 bass 
V:4 bass 
V:1
 [DF][EG] | [FA]4- [FA][GB][FA][FA] | [DF]([FA-] A4) [FA][GB] | [Fd]4- [Fd][Gc][Fd][Ad] | %4
w: 1.~Cling- ing|to * the cross so|pre- cious, * Trust- ing|in * the Sav- ior’s|
w: 2.~To the|cross * of Cal- vary|cling- ing, * Peace and|rap- * ture all may|
w: 3.~Cling- ing|to * the cross for|ref- uge, * When the|tem- * pest rag- es|
w: 4.~Cling- ing|to * the cross till|ev- en, * When my|vi- * gil shall be|
 e6 [Af][_Ge] | [Fd]4- [Fd][GB][FA][FA] | [DF]([FA-] A4) [GB][GB] | [FA]4- [FA][DF][CE][CE] | D6 || %9
w: name; Fear- less-|ly * His bless- èd|sto- ry, * To the|lost * of earth pro-|claim.|
w: know; For on|those * who come be-|liev- ing, * Pre- cious|bless- * ings He’ll be-|stow.|
w: wild; Je- sus|in * His great com-|pas- sion * Keeps from|harm * each low- ly|child.|
w: o’er; And I|go * to dwell for-|ev- er * On the|shin- * ing heav’n- ly|shore.|
"^Refrain" [FA][FA] | [FA]4- [FA][FA][GB][FA] | [GB]([GB-] B4) [DB][EG] | [DF]4- [DF][FA][Ad][Ad] | %13
w: ||||
w: Cling- ing|to * the cross, my|Sav- ior, * I am|trust- * ing all to|
w: ||||
w: ||||
 e6 [Af][_Ge] | [Fd]4- [Fd][GB][FA][FA] | [DF]([FA-] A4) [DB][Ec] | [FA]4- [FA][Fd][Ae][Gc] | d6 |] %18
w: |||||
w: Thee; Cling- ing|to * the cross of|Cal- vary, * Where Thy|blood * was shed for|me!|
w: |||||
w: |||||
V:2
 x2 | x8 | x2 (EEFF) x2 | x8 | (AA=GG A2) x2 | x8 | x2 (EEFF) x2 | x8 | (DCB,B, A,2) || x2 | x8 | %11
 x2 (GGGG) x2 | x8 | (AA=GG A2) x2 | x8 | x2 (EEFF) x2 | x8 | (FAGG F2) |] %18
V:3
 z2 | [D,D]2 [D,D]2 [D,D][D,D][D,D][D,D] | [D,A,][D,D] ([A,,C][A,,C][D,D][D,D]) z2 | %3
w: |~ ~ ~ ~ ~ ~|~ ~ ~ * * *|
 [D,A,]2 [D,A,]2 [F,A,][E,A,][D,A,][F,D] | ([A,C][A,C][E,B,][E,B,] [A,C]2) z2 | %5
w: ~ ~ ~ ~ ~ ~|~ * * * *|
 [D,A,]2 [D,A,]2 [D,A,][D,D][D,D][D,D] | [D,A,]([D,D] [A,,C][A,,C][D,D][D,D]) z2 | %7
w: ~ ~ ~ ~ ~ ~|~ ~ * * * *|
 [D,D]2 [F,D]2 [A,D]A,[A,,A,][A,,G,] | (F,A,G,G, F,2) || z2 | [D,D]2 [D,D]2 [D,D][D,D][D,D][D,D] | %11
w: ~ ~ ~ ~ ~ ~|~ * * * *||Cling- ing to ~ ~ ~|
 [G,D][G,D][G,D][G,D] [G,D][G,D] z2 | [D,A,]2 [D,A,]2 [D,A,][D,D][F,D][F,D] | %13
w: ~ ~ O my Sav- ior,|I am trust- ing ~ ~|
 [A,C][A,C][E,B,][E,B,] [A,C]2 z2 | [D,A,]2 [D,A,]2 [D,A,][D,D][D,D][D,D] | %15
w: ~ my all to Thee;|Cling- ing to ~ ~ ~|
 [D,A,][D,D][A,,C][A,,C] [D,D][D,D] z2 | [D,D]2 [F,D]2 [A,D][A,D][A,,C][A,,E] | DCB,B, A,2 |] %18
w: ~ ~ cross of Cal- vary|where Thy blood ~ ~ ~|~ was shed for me!|
V:4
 x2 | x8 | x8 | x8 | x8 | x8 | x8 | x5 A, x2 | D,6 || x2 | x8 | x8 | x8 | x8 | x8 | x8 | x8 | %17
 D,4 x2 |] %18

